X:1
L:1/4
Q:1/4=200
M:6/8
V:1
V:2 clef=bass
K:F
[V:1] [FAd]- [FAd]/4 z/4 d/e/f/ | [dfa]- [dfa]/4 z/4 d/e/f/ | [dfb]- [dfb]/4 z/4 d/e/f/ | [cfa]3/4 z/4 [cfa]3/4 z/4 [fc']3/4 z/4 |
[V:2] [D,,D,]3/4 z/4 [D,,D,]/ [D,,D,]/[D,,D,]/[D,,D,]/ | [D,,D,]3/4 z/4 [D,,D,]/ [D,,D,]/[D,,D,]/[D,,D,]/ | [B,,,B,,]3/4 z/4 [B,,,B,,]/ [B,,,B,,]/[B,,,B,,]/[B,,,B,,]/ | [F,,F,]3/4 z/4 [F,,F,]/ [F,,F,]/[F,,F,]/[F,,F,]/ |